X:1
T:4 Lieder, Op. 1 (Lieder für eine Singstimme mit Pianofortebegleitung)
T:Ingeborgs-Lied aus dem fliegenden Holländer
T:4 Lieder, Op. 1
T:Clara Faisst
T:4. Ingeborgs-Lied aus dem fliegenden Holländer
T:Julius Wolff
T:OpenScore (CC0)
T:OpenScore (CC0)
C:Clara Faisst
Z:Julius Wolff
Z:OpenScore (CC0)
%%score 1 { ( 2 4 ) | ( 3 5 ) }
L:1/8
Q:1/4=92
M:2/4
K:Ab
V:1 treble nm="Voice\n"
V:2 treble nm="Piano"
V:4 treble 
V:3 bass 
V:5 bass 
V:1
"^Andante. (sehr innig)" c | c3/2 c/ e3/2 e/ | A2 G z/ G/ | F3/2 F/ E A | B2- B B | %5
w: Du|schaust mich an mit|Bli- cken, die|mir zu Her- zen|gehn, * dein|
 c3/2 c/ e3/2 e/ | A2 G z/ G/ | F3/2 A/ G3/2 c/ | A2[Q:1/4=100]!<(! (=A!<)!=B) || %9
w: Lä- cheln und dein|Ni- cken ich|kann es wohl ver-|stehn. Ja *|
[K:E]!f![Q:1/4=108] B2 c d | e2 G2 | B4 | E2 z E | E2 A2 | c2 c2 ||[K:Ab]!<(! d2 =d e | %16
w: Du hast dich|mir er-|ge-|ben, und|willst mit|Leib und|Le- ben mein|
 (e2 f) _g!<)! | f2 z2 |[Q:1/4=104] z!p! B c d | c2 z2 |[Q:1/4=100] z"^rit."!pp! F E E | %21
w: Ei- * gen|sein,|und ich bin|dein!|und ich bin|
 !fermata!c2 z2 |[Q:1/4=90]!mp! z4 |"^Tempo I."[Q:1/4=92] c c/ c/ e3/2 e/ | A2 G z/ G/ | %25
w: dein!||Was mir die See- le|fül- let mit|
 F3/2 F/ E A | B2- !tenuto!.B B |!<(! c3/2 c/ e3/2 e/!<)! |!mf! A2 G z/ G/ | F3/2 A/ G3/2 c/ | %30
w: Ju- bel gren- zen-|los, * kein|Wort es dir ent-|hül- let, das|Glück ist gar zu|
!<(! (A2 =A) =B!<)! ||[K:E]"^schnell"[Q:1/4=108]!f! B2"^(wie Vers I.)" cd | e2 G2 | B4 | E2 z E | %35
w: gross. _ Es|steht ein- *|mal ge-|schrie-|ben: ich|
!mf! E2!<(! A2 | c2 c2 ||[K:Ab] d2 =d!f! e!<)! |!<(! e e f _g!<)! |[Q:1/4=106]!ff! f2 z2 | %40
w: muss dich|lie- ben,|lie- ben bis|in den Tod hin-|ein,|
[Q:1/4=104] z!p! B c d | c2 z2 |[Q:1/4=96] z"^rit."!pp! F E E | !fermata!c3 z |[Q:1/4=100] z4 | %45
w: und du bist|mein!|Und du bist|mein!||
 z4 | z4 |] %47
w: ||
V:2
 z |!p! [EAc]2 [EBe]2 | [FA]2 [Gc]2 | [FA]>[Fd] [Ec][EAe] | [EBe]4 | [EAc]2 [EBe]2 | [FA]2 [Gc]2 | %7
 [FA]>[Ff] [Ge]>[Ge] | [EAe]2!<(! [^D=A^d]2!<)! ||[K:E]!f! [EGe] x x2 | x4 | x4 | x3/2 G/ x3/2 E/ | %13
 x2 x2 | a/e/c/A/ c/E/C/G,/ ||[K:Ab]!<(! (G,/B,/D/E/ G/B/d/e/) | %16
[I:staff +1] (A,,/E,/C/E/!<)![I:staff -1] A/c/e/_g/) | %17
!f![I:staff +1] (D,/!mp!!<(!F,/A,/D/[I:staff -1] F/A/d/f/)!<)! |!>(! x (G/[Be]/) x (G/d/)!>)! | %19
!p! [Ac]2 (A/c/e/a/) |!pp!"_rit." [Adf]2 [GBe]2 | !arpeggio!!fermata![EAe]4- | %22
 [EAe]!pp!"^ritard." F [Gd]2 |!p!"^Andante" [EAc][EAc] [EBe]2 | [FA]2 [Gc]2 | [FA]>[Fd] [Ec][EAe] | %26
 [EBe]4 | [EAc]2 [EBe]2 | [FA]2 [Gc]2 | [FA]>[Ff] [Ge]>[Ge] |!<(! [EAe]2 [^D=A^d]2!<)! || %31
[K:E]!f! [EGe] x x2 | x4 | x4 | x3/2 G/ x3/2 E/ | x2 x2 | a/e/c/A/ c/ x3/2 || %37
[K:Ab]!<(! (G,/B,/D/E/ G/B/d/e/)!<)! |[I:staff +1] (A,,/E,/C/[I:staff -1]E/ A/c/e/_g/) | %39
!>(![I:staff +1] (D,/F,/A,/D/[I:staff -1] F/A/d/f/)!>)! |!p! x (G/[Be]/) x (G/d/) | %41
!<(![I:staff +1] (A,,/E,/C/E/[I:staff -1] A/c/e/a/!<)! |"_rit."!p! [Adf]2) [GBe]2 | %43
 !arpeggio!!fermata![EAe]4- |"^rit."!pp! [EAe]2 [Gd]2 | [EAc]2 z2 |!pp! !fermata![ceac']4 |] %47
V:3
 z | [A,C]2 [G,B,]2 | [F,C]2 [E,G,C]2 | [D,A,D]>[D,A,D] [A,C][C,A,C] | [E,B,]4 | [A,C]2 [G,B,]2 | %6
 [F,C]2 [E,G,C]2 | [D,A,D]>[D,A,D] [E,B,D]>[E,B,D] | [A,C]2 =B,2 || %9
[K:E]!<(! (E,,/B,,/E,/G,/ B,/[I:staff -1]E/G/B/)!<)! |!>(! (g/e/B/G/[I:staff +1] E/B,/G,/E,/)!>)! | %11
 (B,,/F,/A,/B,/[I:staff -1] D/F/c/B/) | %12
[I:staff +1] (C,/G,/C/[I:staff -1]E/)[I:staff +1] B,,/E,/G,/=D/ | %13
!<(! (A,,/E,/A,/C/[I:staff -1] E/A/c/e/)!<)! |!>(![I:staff +1] x2 [C,G,E]2!>)! ||[K:Ab] E,2 E,,2 | %16
 x4 | x4 | (E,/B,/D) (E,,/E,/B,) | (A,,/E,/C/E/) x2 | [D,A,F]2 [E,B,D]2 | %21
 !arpeggio!!fermata![A,,E,C]4- | [A,,E,C]2 [A,,E,B,]2 | [A,,E,A,][A,C] [G,B,]2 | [F,C]2 [E,G,C]2 | %25
 [D,A,D]>[D,A,D] [A,C][C,A,C] | [E,B,]4 | [A,C]2 [G,B,]2 | [F,C]2 [E,G,C]2 | %29
 [D,A,D]>[D,A,D] [E,B,D]>[E,B,D] | [A,C]2 =B,2 || %31
[K:E]!<(! (E,,/B,,/E,/G,/ B,/[I:staff -1]E/G/B/)!<)! |!>(! (g/e/B/G/ E/[I:staff +1]B,/G,/E,/)!>)! | %33
!mf! (B,,/F,/A,/B,/[I:staff -1] D/F/c/B/) | %34
[I:staff +1] C,/G,/C/[I:staff -1]E/[I:staff +1] B,,/E,/G,/=D/ | %35
 (A,,/E,/A,/C/[I:staff -1] E/A/c/e/) |[I:staff +1] x2 !arpeggio![C,G,E]2 ||[K:Ab] E,2 E,,2 | x4 | %39
 x4 | (E,/B,/D) (E,,/E,/B,) | x4 | [D,A,F]2 [E,B,D]2 | !arpeggio![A,,E,C]4- | %44
 [A,,E,C]2 [A,,E,B,]2 | [A,,E,A,]2 A,,,2 |[I:staff -1] !arpeggio![A,EA]4 |] %47
V:4
 x | x4 | x4 | x4 | A2 G2 | x4 | x4 | x4 | x4 ||[K:E] x4 | x4 | x4 | x4 | x4 | x2 G2 ||[K:Ab] x4 | %16
 x4 | x4 | x4 | x4 | x4 | x4 | x2 EE | x4 | x4 | x4 | A2 G2 | x4 | x4 | x4 | x4 ||[K:E] x4 | x4 | %33
 x4 | x4 | x4 | x2 G/E/C/G,/ ||[K:Ab] x4 | x4 | x4 | x4 | [Ac]2 x2 | x4 | x4 | x F EE | x4 | x4 |] %47
V:5
 x | x4 | x4 | x4 | x4 | x4 | x4 | x4 | x2 ^F,=B,, ||[K:E] x4 | x4 | x4 | x4 | x4 | x4 || %15
[K:Ab] x4 | x4 | x4 | x4 | x4 | x4 | x4 | x4 | x4 | x4 | x4 | x4 | x4 | x4 | x4 | x2 ^F,=B,, || %31
[K:E] x4 | x4 | x4 | x4 | x4 | x4 ||[K:Ab] x4 | x4 | x4 | x4 | x4 | x4 | x4 | x4 | x4 | x4 |] %47

